task1.1/build/res/icons/facebook-icon-grey.svg

<svg width="17" height="32" viewBox="0 0 17 32" fill="none" xmlns="http://www.w3.org/2000/svg">
<path d="M13.3294 5.31333H16.2507V0.225333C15.7467 0.156 14.0134 0 11.9947 0C7.78272 0 4.89739 2.64933 4.89739 7.51867V12H0.24939V17.688H4.89739V32H10.5961V17.6893H15.0561L15.7641 12.0013H10.5947V8.08267C10.5961 6.43867 11.0387 5.31333 13.3294 5.31333Z" fill="#E5E5E5"/>
</svg>

<svg width="17" height="32" fill="none" xmlns="http://www.w3.org/2000/svg"><path d="M13.33 5.313h2.92V.225C15.748.156 14.014 0 11.996 0 7.783 0 4.897 2.65 4.897 7.519V12H.25v5.688h4.648V32h5.7V17.69h4.46l.705-5.69h-5.17V8.083c.002-1.644.445-2.77 2.735-2.77z" fill="#E5E5E5"/></svg>
